!!!OTL: SUSANNA SPRANG ZUM THOR HINAUS
!!!ARE: Europa, Mitteleuropa, Deutschland, Siebengebirge
!!!SCT: E0051
!!!YEM: Copyright 1995, estate of Helmut Schaffrath.
**kern
*ICvox
*Ivox
*M4/4
*k[b-e-a-]
*E-:
{4B-
=1
4e-
4g
4b-
8cc
8dd
=2
4ee-
8dd
8cc
4b-}
{4b-
=3
2ee-
2cc
=4
2ee-
2cc
=5
4b-
8b-
8a-
4g}
{8g
8a-
=6
4b-
4b-
4cc
8g
8b-
=7
8b-
8a-
8g
8f
4e-}
{4f
=8
2g
2cc
=9
2b-
4g
4b-
=10
4b-
4a-
4f
4d
=11
2e-
4r}
==
!!!AGN: erzaehlendes Volks - Lied, Sage, Mord, Ballade ?
!!!ONB: ESAC (Essen Associative Code) Database: ERK1
!!!AMT: simple quadruple
!!!AIN: vox
!!!EED: Helmut Schaffrath
!!!EEV: 1.0
*-
